X:075
T:Bonny Kate
M:4/4
L:1/8
K:G
d2 e2 f2 | g3 f g3 f | g2 d2 d2 B2 | cd e2 dedc | B2 G2 G2 Ac | 
B2 G2 G2 AB | c2 A2 A2 c2 | Bc d2 c2 B2 |1 A2 :|2 A6 || 
Ac | B2 G2 G2 AB | c2 A2 d2 B2 | e2 c2 c2 e2 | f4 e2 f2 | 
g3 f g2 e2 | d2 ef g2 B2 | cd e2 dedc |1 B2 G2 G2 :|2 B2 || 

